X: 67
T:Hinchy's Fancy (#177)
M:6/8
L:1/8
S:Capt. F. O'Neill
K:G
A|BAB GBG|AFD F2 G|AGA fed|cAG FGA|
BAB GBG|AFD EFG|AGA fed|cAF G2:|
|:d|gfg afd|gfg a2 d|gfg "tr"b2 g|"tr"a2 g fga|
geg fdf|ece cde|fef ded|cAF G2:||
%
% The above jig named after a blind fiddler of East Clare two
% generations ago, is a better setting of "Hincy's Delight", first
% published in "O'Neill's Music of Ireland, 1903". It was noted down
% from the whistling of Daniel Rogers in Chicago many years ago.

